Icons/eu_chainfire_firepaper_fivehundredpx.svg

<svg viewBox="0 0 48 48" xmlns:xlink="http://www.w3.org/1999/xlink">
 <defs>
  <linearGradient id="0">
   <stop stop-opacity="0"/>
   <stop offset="1"/>
  </linearGradient>
  <linearGradient xlink:href="#0" id="1" gradientUnits="userSpaceOnUse" gradientTransform="translate(4e-7,-48)" y1="47" x2="0" y2="1"/>
  <clipPath id="2">
   <g transform="translate(0,-1004.3622)">
    <rect rx="4" y="1005.36" x="1" height="46" width="46" fill="#1890d0"/>
   </g>
  </clipPath>
  <clipPath id="3">
   <g transform="translate(0,-1004.3622)">
    <rect rx="4" y="1005.36" x="1" height="46" width="46" fill="#1890d0"/>
   </g>
  </clipPath>
 </defs>
 <g>
  <g transform="translate(0,-1004.3622)">
   <path d="m 5,1006.3622 c -2.216,0 -4,1.784 -4,4 l 0,37.25 c 0,2.216 1.784,4 4,4 l 38,0 c 2.216,0 4,-1.784 4,-4 l 0,-37.25 c 0,-2.216 -1.784,-4 -4,-4 l -38,0 z m -4,41.5 0,0.5 c 0,2.216 1.784,4 4,4 l 38,0 c 2.216,0 4,-1.784 4,-4 l 0,-0.5 c 0,2.216 -1.784,4 -4,4 l -38,0 c -2.216,0 -4,-1.784 -4,-4 z" opacity="0.02"/>
   <path d="m 1,1047.6122 0,0.25 c 0,2.216 1.784,4 4,4 l 38,0 c 2.216,0 4,-1.784 4,-4 l 0,-0.25 c 0,2.216 -1.784,4 -4,4 l -38,0 c -2.216,0 -4,-1.784 -4,-4 z" opacity="0.05"/>
   <rect width="46" height="46" x="1" y="1005.61" rx="4" opacity="0.1"/>
  </g>
 </g>
 <g>
  <g transform="translate(0,-1004.3622)">
   <rect rx="4" y="1005.36" x="1" height="46" width="46" fill="#78ceee"/>
  </g>
 </g>
 <g>
  <rect transform="scale(1,-1)" width="46" height="46" x="1" y="-46.998" rx="4" opacity="0.1" fill="url(#1)"/>
 </g>
 <g>
  <g clip-path="url(#2)">
   <g opacity="0.1">
    <g>
     <path d="M 10 24.007812 C 10 19.703125 12.578125 17.054688 16.613281 17 C 19.980469 17.195312 21.953125 18.636719 23.207031 21.144531 C 24.773438 17.710938 27 16 31 16 C 36 16 37.960938 19.878906 38 23.898438 C 38.03125 28.683594 36 32 31 32 C 27 32 25.132812 31.089844 23.394531 27.269531 C 21.824219 30.015625 19.59375 30.96875 16.613281 31 C 12.011719 30.617188 10.035156 27.769531 10 24.007812 M 31 30 C 35 30 36 28 36 24 C 36 20 34.394531 18 31 18 C 27.394531 18 25 21 25 24 C 25 27 27.246094 30.070312 31 30 M 12 24.046875 C 12 27 14 28.953125 16.613281 29 C 20 28.953125 21.984375 26.140625 22 24 C 21.984375 21.140625 20 19.046875 16.613281 19 C 14 19.046875 12 21 12 24.046875 "/>
    </g>
   </g>
  </g>
 </g>
 <g>
  <g clip-path="url(#3)">
   <g transform="translate(0,-1)">
    <g>
     <path d="M 10 24.007812 C 10 19.703125 12.578125 17.054688 16.613281 17 C 19.980469 17.195312 21.953125 18.636719 23.207031 21.144531 C 24.773438 17.710938 27 16 31 16 C 36 16 37.960938 19.878906 38 23.898438 C 38.03125 28.683594 36 32 31 32 C 27 32 25.132812 31.089844 23.394531 27.269531 C 21.824219 30.015625 19.59375 30.96875 16.613281 31 C 12.011719 30.617188 10.035156 27.769531 10 24.007812 M 31 30 C 35 30 36 28 36 24 C 36 20 34.394531 18 31 18 C 27.394531 18 25 21 25 24 C 25 27 27.246094 30.070312 31 30 M 12 24.046875 C 12 27 14 28.953125 16.613281 29 C 20 28.953125 21.984375 26.140625 22 24 C 21.984375 21.140625 20 19.046875 16.613281 19 C 14 19.046875 12 21 12 24.046875 " fill="#f9f9f9"/>
    </g>
   </g>
  </g>
 </g>
 <g>
  <g transform="translate(0,-1004.3622)">
   <path d="m 1,1043.3622 0,4 c 0,2.216 1.784,4 4,4 l 38,0 c 2.216,0 4,-1.784 4,-4 l 0,-4 c 0,2.216 -1.784,4 -4,4 l -38,0 c -2.216,0 -4,-1.784 -4,-4 z" opacity="0.1"/>
  </g>
 </g>
</svg>

<svg viewBox="0 0 48 48"><defs><linearGradient id="linearGradient3764" x1="1" x2="47" gradientUnits="userSpaceOnUse" gradientTransform="translate(-48.000001,0.00221467)"><stop stop-color="#66c8ec" stop-opacity="1"/><stop offset="1" stop-color="#78ceee" stop-opacity="1"/></linearGradient><clipPath id="clipPath-274557163"><g transform="translate(0,-1004.3622)"><rect rx="4" y="1005.36" x="1" height="46" width="46" fill="#1890d0"/></g></clipPath><clipPath id="clipPath-287361540"><g transform="translate(0,-1004.3622)"><rect rx="4" y="1005.36" x="1" height="46" width="46" fill="#1890d0"/></g></clipPath></defs><g><path d="m 1 43 l 0 0.25 c 0 2.216 1.784 4 4 4 l 38 0 c 2.216 0 4 -1.784 4 -4 l 0 -0.25 c 0 2.216 -1.784 4 -4 4 l -38 0 c -2.216 0 -4 -1.784 -4 -4 z m 0 0.5 l 0 0.5 c 0 2.216 1.784 4 4 4 l 38 0 c 2.216 0 4 -1.784 4 -4 l 0 -0.5 c 0 2.216 -1.784 4 -4 4 l -38 0 c -2.216 0 -4 -1.784 -4 -4 z" opacity="0.02"/><path d="m 1 43.25 l 0 0.25 c 0 2.216 1.784 4 4 4 l 38 0 c 2.216 0 4 -1.784 4 -4 l 0 -0.25 c 0 2.216 -1.784 4 -4 4 l -38 0 c -2.216 0 -4 -1.784 -4 -4 z" opacity="0.05"/><path d="m 1 43 l 0 0.25 c 0 2.216 1.784 4 4 4 l 38 0 c 2.216 0 4 -1.784 4 -4 l 0 -0.25 c 0 2.216 -1.784 4 -4 4 l -38 0 c -2.216 0 -4 -1.784 -4 -4 z" opacity="0.1"/></g><g><rect width="46" height="46" x="-47" y="1" rx="4" transform="matrix(0,-1,1,0,0,0)" fill="url(#linearGradient3764)" fill-opacity="1"/></g><g><g clip-path="url(#clipPath-274557163)"><g opacity="0.1"><!-- color: #78ceee --><g><path d="m 10 24.01 c 0 -4.305 2.578 -6.953 6.613 -7.01 c 3.367 0.195 5.34 1.637 6.594 4.145 c 1.566 -3.434 3.793 -5.145 7.793 -5.145 c 5 0 6.961 3.879 7 7.898 c 0.031 4.785 -2 8.102 -7 8.102 c -4 0 -5.867 -0.91 -7.605 -4.73 c -1.57 2.746 -3.801 3.699 -6.781 3.73 c -4.602 -0.383 -6.578 -3.23 -6.613 -6.992 m 21 5.992 c 4 0 5 -2 5 -6 c 0 -4 -1.605 -6 -5 -6 c -3.605 0 -6 3 -6 6 c 0 3 2.246 6.07 6 6 m -19 -5.953 c 0 2.953 2 4.906 4.613 4.953 c 3.387 -0.047 5.371 -2.859 5.387 -5 c -0.016 -2.859 -2 -4.953 -5.387 -5 c -2.613 0.047 -4.613 2 -4.613 5.05" fill="#000"/></g></g></g></g><g><g clip-path="url(#clipPath-287361540)"><g transform="translate(0,-1)"><!-- color: #78ceee --><g><path d="m 10 24.01 c 0 -4.305 2.578 -6.953 6.613 -7.01 c 3.367 0.195 5.34 1.637 6.594 4.145 c 1.566 -3.434 3.793 -5.145 7.793 -5.145 c 5 0 6.961 3.879 7 7.898 c 0.031 4.785 -2 8.102 -7 8.102 c -4 0 -5.867 -0.91 -7.605 -4.73 c -1.57 2.746 -3.801 3.699 -6.781 3.73 c -4.602 -0.383 -6.578 -3.23 -6.613 -6.992 m 21 5.992 c 4 0 5 -2 5 -6 c 0 -4 -1.605 -6 -5 -6 c -3.605 0 -6 3 -6 6 c 0 3 2.246 6.07 6 6 m -19 -5.953 c 0 2.953 2 4.906 4.613 4.953 c 3.387 -0.047 5.371 -2.859 5.387 -5 c -0.016 -2.859 -2 -4.953 -5.387 -5 c -2.613 0.047 -4.613 2 -4.613 5.05" fill="#f9f9f9"/></g></g></g></g><g><g transform="translate(0,-1004.3622)"><path d="m 1 1043.36 0 4 c 0 2.216 1.784 4 4 4 l 38 0 c 2.216 0 4 -1.784 4 -4 l 0 -4 c 0 2.216 -1.784 4 -4 4 l -38 0 c -2.216 0 -4 -1.784 -4 -4 z" opacity="0.1"/></g></g></svg>
